src/components/Categories/folding_knives.svg

<svg width="54" height="46" viewBox="0 0 54 46" xmlns="http://www.w3.org/2000/svg">
<path d="M-9.76529e-05 36.4991C0.0280274 36.4434 0.0842774 36.3877 0.0983399 36.318C0.703028 33.8104 2.60147 32.3198 5.23115 32.3198C17.2405 32.3198 29.2358 32.3198 41.2452 32.3198C43.5796 32.3198 45.914 32.3198 48.2624 32.3198C48.4312 32.3198 48.5999 32.3198 48.8812 32.3198C48.6562 32.083 48.5155 31.9437 48.3749 31.7904C40.7671 24.2817 33.1593 16.7729 25.5515 9.27803C24.9608 8.69293 24.8624 8.23321 25.2421 7.85707C25.6218 7.48094 26.0718 7.56452 26.6765 8.16356C35.2405 16.6196 43.8187 25.0618 52.3687 33.5179C53.128 34.2702 53.6905 35.1757 53.9015 36.2623C53.9155 36.3459 53.9718 36.4155 53.9999 36.4852C53.9999 38.2683 53.9999 40.0376 53.9999 41.8068C53.9577 41.9182 53.9015 42.0297 53.8734 42.1411C53.3109 44.398 51.3562 45.9861 49.0359 45.9861C34.3405 46 19.6452 45.9861 4.9499 45.9861C2.8124 45.9861 0.913965 44.6069 0.238965 42.5869C0.15459 42.3222 0.0702149 42.0715 -0.0141602 41.8068C-9.76529e-05 40.0515 -9.76529e-05 38.2823 -9.76529e-05 36.4991ZM39.8812 44.4397C39.8812 40.9013 39.8812 37.4186 39.8812 33.894C39.628 33.894 39.403 33.894 39.178 33.894C29.6015 33.894 20.0249 33.894 10.4483 33.894C8.69053 33.894 6.93272 33.8801 5.1749 33.894C3.02334 33.908 1.5749 35.3568 1.56084 37.4743C1.56084 38.533 1.56084 39.5918 1.56084 40.6645C1.56084 43.0606 2.96709 44.4397 5.3999 44.4397C16.678 44.4397 27.9562 44.4397 39.2343 44.4397C39.4452 44.4397 39.6421 44.4397 39.8812 44.4397ZM41.5546 44.4258C44.1421 44.4258 46.6734 44.4815 49.2046 44.4119C51.0187 44.3562 52.3827 42.8656 52.4249 41.0406C52.453 39.8983 52.4249 38.742 52.4249 37.5997C52.4249 35.315 50.9905 33.894 48.6702 33.894C46.4765 33.894 44.2827 33.894 42.089 33.894C41.9202 33.894 41.7515 33.908 41.5546 33.9219C41.5546 37.4325 41.5546 40.9013 41.5546 44.4258Z" fill=""/>
<path d="M15.3703 3.0091C15.3703 2.74441 15.3844 2.47973 15.3703 2.22897C15.2859 1.30953 15.7219 0.682634 16.4953 0.278637C17.325 -0.139292 18.1969 -0.11143 18.8578 0.529394C20.5875 2.15931 22.2609 3.84496 23.9484 5.5306C24.2859 5.86495 24.2438 6.35253 23.9203 6.64508C23.5828 6.93763 23.1328 6.90977 22.7531 6.53363C21.2344 5.05695 19.7438 3.56634 18.225 2.07573C18.1125 1.96428 18.0141 1.81104 17.8734 1.76925C17.6766 1.69959 17.4094 1.62994 17.2547 1.69959C17.1 1.76925 16.9734 2.04787 16.9734 2.22897C16.9734 4.84799 17.325 7.42521 17.9719 9.97458C18.9141 13.6663 20.4469 17.0933 22.5703 20.2696C22.95 20.8407 23.0484 20.8686 23.5969 20.4646C24.4266 19.8516 25.4391 19.8795 26.1984 20.576C26.775 21.1054 27.3375 21.6626 27.8859 22.2338C28.3219 22.6935 28.5047 23.2508 28.3922 23.8637C28.2656 24.5603 28.1391 25.2708 27.9844 25.9673C27.9 26.3295 27.9844 26.5803 28.2516 26.845C29.3625 27.9176 30.4453 29.0043 31.5422 30.0909C31.8516 30.3834 32.0063 30.7178 31.8234 31.1218C31.6125 31.5954 30.9938 31.7487 30.5859 31.3586C29.2922 30.1048 28.0125 28.8371 26.7609 27.5415C26.2828 27.0539 26.2828 26.3992 26.4094 25.7583C26.5078 25.215 26.5922 24.6578 26.7469 24.1284C26.8734 23.6548 26.8172 23.3065 26.4234 22.9722C26.0297 22.6517 25.6922 22.2756 25.3406 21.9134C25.0594 21.6069 24.8063 21.5512 24.4406 21.8437C23.3859 22.6517 22.1344 22.4428 21.3891 21.3283C18.4219 16.9679 16.5375 12.1896 15.75 7.00729C15.5531 5.68385 15.4688 4.34647 15.3281 3.0091C15.3422 3.0091 15.3563 3.0091 15.3703 3.0091Z" fill=""/>
<path d="M10.3358 42.977C8.84516 42.977 7.35454 42.991 5.86391 42.977C4.41547 42.9631 3.19204 41.8486 3.07954 40.4277C3.03735 39.8426 3.30454 39.4385 3.79672 39.4107C4.23266 39.3689 4.5561 39.6336 4.65454 40.0794C4.85141 41.1242 5.20297 41.4167 6.29985 41.4167C9.19672 41.4167 12.0936 41.4167 14.9905 41.4167C15.6092 41.4167 15.9889 41.779 15.9327 42.2805C15.8905 42.7123 15.553 42.977 15.0467 42.977C13.4577 42.977 11.8967 42.977 10.3358 42.977Z" fill=""/>
<path d="M46.8842 36.3738C48.4733 36.3877 49.7108 37.6276 49.6968 39.2018C49.6827 40.7481 48.4311 41.9601 46.8702 41.9601C45.2952 41.9601 44.0014 40.6924 44.0155 39.146C44.0155 37.6136 45.3092 36.3598 46.8842 36.3738ZM48.1077 39.146C48.0936 38.4634 47.5452 37.948 46.8421 37.948C46.153 37.9619 45.6186 38.5052 45.6327 39.1878C45.6467 39.8704 46.1952 40.3859 46.8983 40.372C47.5874 40.372 48.1077 39.8286 48.1077 39.146Z" fill=""/>
</svg>

<svg xmlns="http://www.w3.org/2000/svg" width="54" height="46"><path d="M0 36.5c.028-.057.084-.112.098-.182.605-2.508 2.503-3.998 5.133-3.998h43.651c-.226-.237-.366-.376-.507-.53-7.608-7.508-15.216-15.017-22.823-22.512-.591-.585-.69-1.045-.31-1.42.38-.377.83-.293 1.434.306C35.24 16.62 43.82 25.062 52.37 33.518c.759.752 1.322 1.658 1.532 2.744.014.084.07.154.099.223v5.322c-.042.111-.099.223-.127.334-.562 2.257-2.517 3.845-4.837 3.845-14.696.014-29.39 0-44.086 0a4.978 4.978 0 0 1-4.711-3.4c-.084-.264-.169-.514-.253-.78C0 40.052 0 38.283 0 36.5Zm39.881 7.94V33.894H10.448c-1.757 0-3.515-.014-5.273 0-2.152.014-3.6 1.463-3.614 3.58v3.19c0 2.397 1.406 3.776 3.839 3.776H39.88Zm1.674-.014c2.587 0 5.118.055 7.65-.014 1.814-.056 3.178-1.546 3.22-3.371.028-1.143 0-2.299 0-3.441 0-2.285-1.434-3.706-3.755-3.706H42.09c-.169 0-.337.014-.534.028v10.504Z"/><path d="M15.37 3.01c0-.266.014-.53 0-.781-.084-.92.352-1.546 1.125-1.95.83-.418 1.702-.39 2.363.25 1.73 1.63 3.403 3.316 5.09 5.002a.75.75 0 0 1-.028 1.114c-.337.293-.787.265-1.167-.111-1.519-1.477-3.01-2.968-4.528-4.458-.113-.112-.21-.265-.352-.307-.196-.07-.464-.14-.618-.07-.155.07-.282.349-.282.53 0 2.619.352 5.196.999 7.746A33.125 33.125 0 0 0 22.57 20.27c.38.57.478.599 1.027.195.83-.613 1.842-.585 2.601.111a37.63 37.63 0 0 1 1.688 1.658c.436.46.619 1.017.506 1.63-.126.696-.253 1.407-.408 2.103-.084.363 0 .613.268.878 1.11 1.073 2.193 2.16 3.29 3.246.31.292.464.627.281 1.03a.764.764 0 0 1-1.237.238 164.081 164.081 0 0 1-3.825-3.818c-.478-.487-.478-1.142-.352-1.783.099-.543.183-1.1.338-1.63.126-.473.07-.822-.324-1.156-.393-.32-.73-.696-1.082-1.059-.282-.306-.535-.362-.9-.07-1.055.809-2.307.6-3.052-.515-2.967-4.36-4.851-9.138-5.639-14.32-.197-1.324-.281-2.662-.422-3.999h.042ZM10.336 42.977c-1.49 0-2.981.014-4.472 0-1.449-.014-2.672-1.128-2.784-2.55-.043-.584.225-.989.717-1.016.436-.042.76.223.858.668.196 1.045.548 1.338 1.645 1.338h8.69c.62 0 .999.362.943.864-.043.431-.38.696-.886.696h-4.711ZM46.884 36.374c1.59.014 2.827 1.254 2.813 2.828-.014 1.546-1.266 2.758-2.827 2.758-1.575 0-2.869-1.268-2.854-2.814 0-1.532 1.293-2.786 2.868-2.772Zm1.224 2.772c-.014-.683-.563-1.198-1.266-1.198a1.212 1.212 0 0 0-1.21 1.24c.015.682.563 1.198 1.266 1.184.69 0 1.21-.543 1.21-1.226Z"/></svg>
